X:157
T: Der grausame Bruder
N: Q0068B
O: Mitteleuropa, Deutschland (BRD) , Niedersachsen, Hannover, Gifhorn
R: Ballade, Schwangerschaft, Moral, Mord
M: 6/8
L: 1/16
K: F
C2 | C2F2F2F2G2A2 | A2G2F2G4
CC | B4c2A3GFA | G3FE2F4
A2 | B3cB2A3GFA | G3FE2F4
A2 | B3cB2A3GFA | G3FE2F4

